X:1
T:Title
%%score { ( 1 4 ) | ( 2 3 ) }
L:1/8
Q:1/4=108
M:6/4
K:C
V:1 treble nm="Grand Piano"
V:4 treble 
V:2 bass 
V:3 bass 
V:1
 [G,EG]4 [G,EG]2 [G,EG]2 [_E^F]2 [G,=EG]2 | .e6 [=EG]6 | A4 [GB]2 [Gc]2 G2 A2 | B2 c2 ^c2 d6 | %4
w: S.~M.~Bixby * * * *||||
 .[Ee]6 .d6 | A2 B2 [CFc]2 [EG]6 | z6 .d6 | .[Ec]12 |] %8
w: ||||
V:2
 C,4 C,2 z2 A,2 C,2 | [C,G,]4 [C,^F,]2 .[C,G,]6 | [F,CF]4 [F,D]2 [E,C]4[K:treble] [A,C^F]2 | %3
 .[G,F]6 z6 | .[C,C]4 [C,G,]2 [C,G,]4 [E,C]2 | .[CF]6 z6 | z2 G,2 [E,A,]2 .[D,A,]4 [G,D]2 | %7
 .[C,C]12 |] %8
V:3
 z6 .C,6 | x12 | x10[K:treble] x2 | D2 A,2 [G,_B,E]2 [G,=B,F]6 | x12 | F,2 G,2 A,2 C6 | .E,6 z6 | %7
 x12 |] %8
V:4
 x12 | E2- [Ec]2 [_EA]2 z4 C2 | x12 | x12 | z2 G,2 [EB]2 E2- [Ec]2 G2 | x12 | %6
 .[CGc]4 [G^c]2 F2- [DFA]2 [FB]2 | x12 |] %8

